X: 12469
T: Farewell To Connaught
R: reel
M: 4/4
K: Dmixolydian
|:D2 (3FED FGAB|(c2c)d cA G2|Add^c d2 =cd|ed^cd eddA|
D2 (3FED FGAB|(c2c)d cA G2|ABAG EGAB|1 cAGc EDDC:|2 cAGc EDD2||
|:e(gg)f g2 ed|cded cA ~A2|e(aa)g abag|eaag edd2|
e(gg)f g2 ed|cded cA ~G2|ABAG EGAB|1 cAGc ED D2:|2 cAGc EDDC||

